X:1
T:Only Thee
T:Only Thee
T:William Howard Doane
T:Frances Jane (Fanny) Crosby, 1873
T:Public Domain Courtesy of the Cyber Hymnal™
C:William Howard Doane
Z:Public Domain
Z:Courtesy of the Cyber Hymnal™
%%score ( 1 2 ) ( 3 4 )
L:1/8
Q:1/4=140
M:6/4
K:Bb
V:1 treble 
V:2 treble 
V:3 bass 
V:4 bass 
V:1
 [DB]4 [Ec]2 [Fd]4 [FB]2 | [GB]4 [EG]2 [EG]4 [DF]2 | [FB]4 [Fc]2 [Fd]4 [FB]2 | %3
w: 1.~On- ly Thee, my|soul’s Re- deem- er!|Whom have I in|
w: 2.~On- ly Thee! no|joy I co- vet|But the joy to|
w: 3.~On- ly Thee! I|ask no oth- er;|Thou art more than|
w: 4.~On- ly Thee, whose|blood has cleansed me,|Would my rap- tured|
 (d2 c2) [FB]2 [Fc]6 | [DB]4 [Ec]2 [Fd]4 [FB]2 | [GB]4 [EG]2 [EG]4 [DF]2 | %6
w: Heaven * be- side?|Who on earth, with|love so ten- der,|
w: call * Thee mine—|Joy that gives the|blest as- sur- ance,|
w: all * to me;|Life, or health, or|crea- ture com- fort—|
w: vi- * sion see,|While my faith is|reach- ing up- ward,|
 [FB]4 [Fc]2 [Fd]4 [Ge]2 | [Fd]4 [Ec]2 [DB]6 ||"^Refrain" [Fd]4 [Ec]2 [DB]6 | [EB]4 [EG]2 [DF]6 | %10
w: All my wan- dering|steps will guide?|||
w: Thou hast owned and|sealed me Thine.|On- ly Thee,|on- ly Thee,|
w: I would give them|all for Thee.|||
w: Ev- er up- ward,|Lord, to Thee.|||
 [EG]2 [EB]4 F4 [Ge]2 | [Fd]4 [Ec]2 [DB]6 |] %12
w: ||
w: Lov- ing Sav- ior,|on- ly Thee.|
w: ||
w: ||
V:2
 x12 | x12 | x12 | F4 x8 | x12 | x12 | x12 | x12 || x12 | x12 | x6 F4 x2 | x12 |] %12
V:3
 [B,,F,]4 [B,,F,]2 [B,,B,]4 [D,B,]2 | [E,B,]4 [E,B,]2 [B,,B,]4 [B,,B,]2 | %2
 [D,B,]4 [F,A,]2 B,4 [B,D]2 | (B,2 G,2) [F,G,]2 [F,A,]6 | [B,,B,]4 [B,,B,]2 [B,,B,]4 [D,B,]2 | %5
 [E,B,]4 [E,B,]2 [B,,B,]4 [B,,B,]2 | [D,B,]4 [F,A,]2 B,4 [E,B,]2 | [F,B,]4 [F,A,]2 [B,,B,]6 || %8
 [B,,B,]4 [B,,F,]2 [B,,F,]6 | [E,G,]4 [E,B,]2 [B,,B,]6 | [E,B,]2 [E,G,]4 [D,B,]4 [E,B,]2 | %11
 [F,B,]4 [F,A,]2 [B,,B,]6 |] %12
V:4
 x12 | x12 | x6 B,4 x2 | F,4 x8 | x12 | x12 | x6 B,4 x2 | x12 || x12 | x12 | x12 | x12 |] %12

